dist/svgs/devui-icons/op/add-bug.svg

<?xml version="1.0" encoding="UTF-8"?>
<svg width="16px" height="16px" viewBox="0 0 16 16" version="1.1" xmlns="http://www.w3.org/2000/svg" xmlns:xlink="http://www.w3.org/1999/xlink">
    <title>操作/新建bug</title>
    <desc>Created with Sketch.</desc>
    <g id="操作/新建bug" stroke="none" stroke-width="1" fill="none" fill-rule="evenodd">
        <path d="M13,7 L10,7 L10,10 L8.5,10 L8.5,7 L7.5,7 L7.5,10 L7,10 L7,14 C5.7862891,13.7522523 4.7508827,13.0498643 4.03776084,12.0975411 L3,12.62 L3,15 L1,15 L1,11.38 L3.1686018,10.2999513 C3.05832649,9.88091086 2.99990929,9.44444229 3,9 L1,9 L1,7 L2.99999996,7 L2.99999992,5.12170339 L0.588382746,2.71008622 L2.00259631,1.29587266 L4.70672365,4 L11.8823882,4 L14.5846901,1.29769806 L15.9989037,2.71191163 L13.0007709,5.71004438 L13,7 L13,7 Z M15,15 L13,15 L15,15 L15,15 Z M9,14 L8.5,14 L9,14 L9,14 Z M5,3 C5,1.34314575 6.34314575,-1.0658141e-14 8,-1.0658141e-14 C9.65685425,-1.0658141e-14 11,1.34314575 11,3 L5,3 Z M11,11 L11,8 L13,8 L13,11 L16,11 L16,13 L13,13 L13,16 L11,16 L11,13 L8,13 L8,11 L11,11 Z" id="形状" fill="#293040" fill-rule="nonzero"></path>
    </g>
</svg>

<svg xmlns="http://www.w3.org/2000/svg" viewBox="0 0 16 16"><path d="M13 7h-3v3H8.5V7h-1v3H7v4a4.947 4.947 0 01-2.962-1.902L3 12.62V15H1v-3.62l2.169-1.08A5.102 5.102 0 013 9H1V7h2V5.122L.588 2.71l1.415-1.414L4.707 4h7.175l2.703-2.702 1.414 1.414L13 5.71V7zm2 8h-2 2zm-6-1h-.5.5zM5 3a3 3 0 116 0H5zm6 8V8h2v3h3v2h-3v3h-2v-3H8v-2h3z"/></svg>
